icons-dark/actions/24/zoom.svg

<?xml version="1.0" encoding="UTF-8" standalone="no"?>
<!-- Created with Inkscape (http://www.inkscape.org/) -->

<svg
   xmlns:dc="http://purl.org/dc/elements/1.1/"
   xmlns:cc="http://creativecommons.org/ns#"
   xmlns:rdf="http://www.w3.org/1999/02/22-rdf-syntax-ns#"
   xmlns:svg="http://www.w3.org/2000/svg"
   xmlns="http://www.w3.org/2000/svg"
   xmlns:xlink="http://www.w3.org/1999/xlink"
   xmlns:sodipodi="http://sodipodi.sourceforge.net/DTD/sodipodi-0.dtd"
   xmlns:inkscape="http://www.inkscape.org/namespaces/inkscape"
   width="24"
   height="24"
   id="svg3869"
   version="1.1"
   inkscape:version="0.91 r13725"
   sodipodi:docname="zoom.svg">
  <defs
     id="defs3871">
    <linearGradient
       id="linearGradient4300-8"
       inkscape:collect="always">
      <stop
         id="stop4302-5"
         offset="0"
         style="stop-color:#f27935;stop-opacity:1" />
      <stop
         id="stop4304-7"
         offset="1"
         style="stop-color:#f2784b;stop-opacity:1" />
    </linearGradient>
    <linearGradient
       inkscape:collect="always"
       xlink:href="#linearGradient4351"
       id="linearGradient4357"
       x1="47"
       y1="61"
       x2="47"
       y2="47"
       gradientUnits="userSpaceOnUse" />
    <linearGradient
       inkscape:collect="always"
       id="linearGradient4410">
      <stop
         style="stop-color:#383e51;stop-opacity:1"
         offset="0"
         id="stop4412" />
      <stop
         style="stop-color:#655c6f;stop-opacity:0"
         offset="1"
         id="stop4414" />
    </linearGradient>
    <linearGradient
       gradientTransform="matrix(1,0,0,-1,-14,78)"
       inkscape:collect="always"
       xlink:href="#linearGradient4410"
       id="linearGradient4427"
       x1="54"
       y1="31"
       x2="40"
       y2="17"
       gradientUnits="userSpaceOnUse" />
    <linearGradient
       inkscape:collect="always"
       xlink:href="#linearGradient4300-8"
       id="linearGradient4306"
       x1="32"
       y1="61"
       x2="32"
       y2="3"
       gradientUnits="userSpaceOnUse" />
    <linearGradient
       inkscape:collect="always"
       id="linearGradient4351">
      <stop
         style="stop-color:#f7ab89;stop-opacity:1"
         offset="0"
         id="stop4353" />
      <stop
         style="stop-color:#f9bda3;stop-opacity:1"
         offset="1"
         id="stop4355" />
    </linearGradient>
    <linearGradient
       y2="17"
       x2="40"
       y1="31"
       x1="54"
       gradientTransform="matrix(1,0,0,-1,503.93261,656.69754)"
       gradientUnits="userSpaceOnUse"
       id="linearGradient3444"
       xlink:href="#linearGradient4410"
       inkscape:collect="always" />
    <linearGradient
       gradientTransform="translate(517.93261,578.69754)"
       y2="47"
       x2="47"
       y1="61"
       x1="47"
       gradientUnits="userSpaceOnUse"
       id="linearGradient3447"
       xlink:href="#linearGradient4351"
       inkscape:collect="always" />
    <linearGradient
       gradientTransform="translate(517.93261,578.69754)"
       y2="3"
       x2="32"
       y1="61"
       x1="32"
       gradientUnits="userSpaceOnUse"
       id="linearGradient3452"
       xlink:href="#linearGradient4300-8"
       inkscape:collect="always" />
    <linearGradient
       gradientTransform="matrix(1,0,0,-1,-14,78)"
       inkscape:collect="always"
       xlink:href="#linearGradient4410"
       id="linearGradient5569"
       x1="54"
       y1="31"
       x2="40"
       y2="17"
       gradientUnits="userSpaceOnUse" />
    <linearGradient
       inkscape:collect="always"
       xlink:href="#linearGradient4300-8"
       id="linearGradient5571"
       x1="32"
       y1="61"
       x2="32"
       y2="3"
       gradientUnits="userSpaceOnUse" />
    <linearGradient
       y2="17"
       x2="40"
       y1="31"
       x1="54"
       gradientTransform="matrix(1,0,0,-1,503.93261,656.69754)"
       gradientUnits="userSpaceOnUse"
       id="linearGradient5573"
       xlink:href="#linearGradient4410"
       inkscape:collect="always" />
    <linearGradient
       gradientTransform="translate(517.93261,578.69754)"
       y2="47"
       x2="47"
       y1="61"
       x1="47"
       gradientUnits="userSpaceOnUse"
       id="linearGradient5575"
       xlink:href="#linearGradient4351"
       inkscape:collect="always" />
    <linearGradient
       gradientTransform="translate(517.93261,578.69754)"
       y2="3"
       x2="32"
       y1="61"
       x1="32"
       gradientUnits="userSpaceOnUse"
       id="linearGradient5577"
       xlink:href="#linearGradient4300-8"
       inkscape:collect="always" />
    <clipPath
       id="clipPath16"
       clipPathUnits="userSpaceOnUse">
      <path
         id="path18"
         d="m 0,706.465 1490.926,0 L 1490.926,0 0,0 0,706.465 Z"
         inkscape:connector-curvature="0" />
    </clipPath>
    <clipPath
       id="clipPath24"
       clipPathUnits="userSpaceOnUse">
      <path
         id="path26"
         d="m 22.1953,686.117 1447.7347,0 0,-667.1902 -1447.7347,0 0,667.1902 z"
         inkscape:connector-curvature="0" />
    </clipPath>
    <linearGradient
       gradientTransform="matrix(1,0,0,-1,-14,78)"
       inkscape:collect="always"
       xlink:href="#linearGradient4410"
       id="linearGradient5638"
       x1="54"
       y1="31"
       x2="40"
       y2="17"
       gradientUnits="userSpaceOnUse" />
    <linearGradient
       inkscape:collect="always"
       xlink:href="#linearGradient4300-8"
       id="linearGradient5640"
       x1="32"
       y1="61"
       x2="32"
       y2="3"
       gradientUnits="userSpaceOnUse" />
    <linearGradient
       y2="17"
       x2="40"
       y1="31"
       x1="54"
       gradientTransform="matrix(1,0,0,-1,503.93261,656.69754)"
       gradientUnits="userSpaceOnUse"
       id="linearGradient5642"
       xlink:href="#linearGradient4410"
       inkscape:collect="always" />
    <linearGradient
       gradientTransform="translate(517.93261,578.69754)"
       y2="47"
       x2="47"
       y1="61"
       x1="47"
       gradientUnits="userSpaceOnUse"
       id="linearGradient5644"
       xlink:href="#linearGradient4351"
       inkscape:collect="always" />
    <linearGradient
       gradientTransform="translate(517.93261,578.69754)"
       y2="3"
       x2="32"
       y1="61"
       x1="32"
       gradientUnits="userSpaceOnUse"
       id="linearGradient5646"
       xlink:href="#linearGradient4300-8"
       inkscape:collect="always" />
    <linearGradient
       gradientTransform="matrix(1,0,0,-1,-14,78)"
       inkscape:collect="always"
       xlink:href="#linearGradient4410"
       id="linearGradient5705"
       x1="54"
       y1="31"
       x2="40"
       y2="17"
       gradientUnits="userSpaceOnUse" />
    <linearGradient
       inkscape:collect="always"
       xlink:href="#linearGradient4300-8"
       id="linearGradient5707"
       x1="32"
       y1="61"
       x2="32"
       y2="3"
       gradientUnits="userSpaceOnUse" />
    <linearGradient
       y2="17"
       x2="40"
       y1="31"
       x1="54"
       gradientTransform="matrix(1,0,0,-1,503.93261,656.69754)"
       gradientUnits="userSpaceOnUse"
       id="linearGradient5709"
       xlink:href="#linearGradient4410"
       inkscape:collect="always" />
    <linearGradient
       gradientTransform="translate(517.93261,578.69754)"
       y2="47"
       x2="47"
       y1="61"
       x1="47"
       gradientUnits="userSpaceOnUse"
       id="linearGradient5711"
       xlink:href="#linearGradient4351"
       inkscape:collect="always" />
    <linearGradient
       gradientTransform="translate(517.93261,578.69754)"
       y2="3"
       x2="32"
       y1="61"
       x1="32"
       gradientUnits="userSpaceOnUse"
       id="linearGradient5713"
       xlink:href="#linearGradient4300-8"
       inkscape:collect="always" />
    <linearGradient
       gradientTransform="matrix(1,0,0,-1,-14,78)"
       inkscape:collect="always"
       xlink:href="#linearGradient4410"
       id="linearGradient5774"
       x1="54"
       y1="31"
       x2="40"
       y2="17"
       gradientUnits="userSpaceOnUse" />
    <linearGradient
       inkscape:collect="always"
       xlink:href="#linearGradient4300-8"
       id="linearGradient5776"
       x1="32"
       y1="61"
       x2="32"
       y2="3"
       gradientUnits="userSpaceOnUse" />
    <linearGradient
       y2="17"
       x2="40"
       y1="31"
       x1="54"
       gradientTransform="matrix(1,0,0,-1,503.93261,656.69754)"
       gradientUnits="userSpaceOnUse"
       id="linearGradient5778"
       xlink:href="#linearGradient4410"
       inkscape:collect="always" />
    <linearGradient
       gradientTransform="translate(517.93261,578.69754)"
       y2="47"
       x2="47"
       y1="61"
       x1="47"
       gradientUnits="userSpaceOnUse"
       id="linearGradient5780"
       xlink:href="#linearGradient4351"
       inkscape:collect="always" />
    <linearGradient
       gradientTransform="translate(517.93261,578.69754)"
       y2="3"
       x2="32"
       y1="61"
       x1="32"
       gradientUnits="userSpaceOnUse"
       id="linearGradient5782"
       xlink:href="#linearGradient4300-8"
       inkscape:collect="always" />
    <clipPath
       id="clipPath16-4"
       clipPathUnits="userSpaceOnUse">
      <path
         id="path18-1"
         d="m 0,706.465 1490.926,0 L 1490.926,0 0,0 0,706.465 Z"
         inkscape:connector-curvature="0" />
    </clipPath>
    <clipPath
       id="clipPath24-6"
       clipPathUnits="userSpaceOnUse">
      <path
         id="path26-5"
         d="m 22.1953,686.117 1447.7347,0 0,-667.1902 -1447.7347,0 0,667.1902 z"
         inkscape:connector-curvature="0" />
    </clipPath>
    <linearGradient
       gradientTransform="matrix(1,0,0,-1,-14,78)"
       inkscape:collect="always"
       xlink:href="#linearGradient4410"
       id="linearGradient5844"
       x1="54"
       y1="31"
       x2="40"
       y2="17"
       gradientUnits="userSpaceOnUse" />
    <linearGradient
       inkscape:collect="always"
       xlink:href="#linearGradient4300-8"
       id="linearGradient5846"
       x1="32"
       y1="61"
       x2="32"
       y2="3"
       gradientUnits="userSpaceOnUse" />
    <linearGradient
       y2="17"
       x2="40"
       y1="31"
       x1="54"
       gradientTransform="matrix(1,0,0,-1,503.93261,656.69754)"
       gradientUnits="userSpaceOnUse"
       id="linearGradient5848"
       xlink:href="#linearGradient4410"
       inkscape:collect="always" />
    <linearGradient
       gradientTransform="translate(517.93261,578.69754)"
       y2="47"
       x2="47"
       y1="61"
       x1="47"
       gradientUnits="userSpaceOnUse"
       id="linearGradient5850"
       xlink:href="#linearGradient4351"
       inkscape:collect="always" />
    <linearGradient
       gradientTransform="translate(517.93261,578.69754)"
       y2="3"
       x2="32"
       y1="61"
       x1="32"
       gradientUnits="userSpaceOnUse"
       id="linearGradient5852"
       xlink:href="#linearGradient4300-8"
       inkscape:collect="always" />
    <clipPath
       id="clipPath16-3"
       clipPathUnits="userSpaceOnUse">
      <path
         id="path18-7"
         d="m 0,706.465 1490.926,0 L 1490.926,0 0,0 0,706.465 Z"
         inkscape:connector-curvature="0" />
    </clipPath>
    <clipPath
       id="clipPath24-7"
       clipPathUnits="userSpaceOnUse">
      <path
         id="path26-7"
         d="m 22.1953,686.117 1447.7347,0 0,-667.1902 -1447.7347,0 0,667.1902 z"
         inkscape:connector-curvature="0" />
    </clipPath>
  </defs>
  <sodipodi:namedview
     id="base"
     pagecolor="#ffffff"
     bordercolor="#666666"
     borderopacity="1.0"
     inkscape:pageopacity="0.0"
     inkscape:pageshadow="2"
     inkscape:zoom="17.681818"
     inkscape:cx="7.0087585"
     inkscape:cy="15.330547"
     inkscape:document-units="px"
     inkscape:current-layer="layer1"
     showgrid="true"
     fit-margin-top="0"
     fit-margin-left="0"
     fit-margin-right="0"
     fit-margin-bottom="0"
     inkscape:window-width="2560"
     inkscape:window-height="957"
     inkscape:window-x="0"
     inkscape:window-y="30"
     inkscape:window-maximized="1"
     inkscape:showpageshadow="false"
     inkscape:snap-bbox="true"
     inkscape:object-nodes="true">
    <inkscape:grid
       type="xygrid"
       id="grid4132"
       originx="1"
       originy="0.99998262" />
    <sodipodi:guide
       position="3,21"
       orientation="18,0"
       id="guide4138" />
    <sodipodi:guide
       position="3,3"
       orientation="0,18"
       id="guide4140" />
    <sodipodi:guide
       position="21,3"
       orientation="-18,0"
       id="guide4142" />
    <sodipodi:guide
       position="21,21"
       orientation="0,-18"
       id="guide4144" />
    <sodipodi:guide
       position="4,20"
       orientation="16,0"
       id="guide4146" />
    <sodipodi:guide
       position="4,4"
       orientation="0,16"
       id="guide4148" />
    <sodipodi:guide
       position="20,4"
       orientation="-16,0"
       id="guide4150" />
    <sodipodi:guide
       position="20,20"
       orientation="0,-16"
       id="guide4152" />
  </sodipodi:namedview>
  <metadata
     id="metadata3874">
    <rdf:RDF>
      <cc:Work
         rdf:about="">
        <dc:format>image/svg+xml</dc:format>
        <dc:type
           rdf:resource="http://purl.org/dc/dcmitype/StillImage" />
        <dc:title></dc:title>
      </cc:Work>
    </rdf:RDF>
  </metadata>
  <g
     inkscape:label="Capa 1"
     inkscape:groupmode="layer"
     id="layer1"
     transform="translate(-325,-533.36218)">
    <path
       style="opacity:1;fill:#f2f2f2;fill-opacity:1;stroke:none"
       d="M 3,3 3,4 3,6 4,6 4,4 6,4 6,3 4,3 3,3 Z"
       transform="translate(326,534.3622)"
       id="path4162"
       inkscape:connector-curvature="0" />
    <path
       style="opacity:1;fill:#f2f2f2;fill-opacity:1;stroke:none"
       d="m 18,16 0,2 -2,0 0,1 3,0 0,-3 -1,0 z"
       transform="translate(326,534.3622)"
       id="rect4134"
       inkscape:connector-curvature="0" />
    <path
       style="opacity:1;fill:#f2f2f2;fill-opacity:1;stroke:none"
       d="m 16,3 0,1 2,0 0,2 1,0 0,-2 0,-1 -1,0 -2,0 z"
       transform="translate(326,534.3622)"
       id="path4170"
       inkscape:connector-curvature="0" />
    <path
       style="opacity:1;fill:#f2f2f2;fill-opacity:1;stroke:none"
       d="m 3,16 0,2 0,1 3,0 0,-1 -2,0 0,-2 -1,0 z"
       transform="translate(326,534.3622)"
       id="path4172"
       inkscape:connector-curvature="0" />
    <path
       style="fill:#f2f2f2;fill-opacity:1;fill-rule:evenodd;stroke:none;stroke-width:1px;stroke-linecap:butt;stroke-linejoin:miter;stroke-opacity:1"
       d="m 331,547.3622 -2,-2 2,-2 z"
       id="path4181"
       inkscape:connector-curvature="0" />
    <path
       inkscape:connector-curvature="0"
       id="path4183"
       d="m 343,547.3622 2,-2 -2,-2 z"
       style="fill:#f2f2f2;fill-opacity:1;fill-rule:evenodd;stroke:none;stroke-width:1px;stroke-linecap:butt;stroke-linejoin:miter;stroke-opacity:1" />
    <path
       inkscape:connector-curvature="0"
       id="path4185-1"
       d="m 335,539.3622 2,-2 2,2 z"
       style="fill:#f2f2f2;fill-opacity:1;fill-rule:evenodd;stroke:none;stroke-width:1px;stroke-linecap:butt;stroke-linejoin:miter;stroke-opacity:1" />
    <path
       style="fill:#f2f2f2;fill-opacity:1;fill-rule:evenodd;stroke:none;stroke-width:1px;stroke-linecap:butt;stroke-linejoin:miter;stroke-opacity:1"
       d="m 335,551.3622 2,2 2,-2 z"
       id="path4187"
       inkscape:connector-curvature="0" />
  </g>
</svg>

<svg xmlns="http://www.w3.org/2000/svg" viewBox="0 0 24 24">
  <defs id="defs3051">
    <style type="text/css" id="current-color-scheme">
      .ColorScheme-Text {
        color:#f2f2f2
      }
      </style>
  </defs>
  <a transform="translate(1,1)">
 <path 
    style="fill:currentColor;fill-opacity:1;stroke:none" 
    d="M 3 3 L 3 4 L 3 6 L 4 6 L 4 4 L 6 4 L 6 3 L 4 3 L 3 3 z M 11 3 L 9 5 L 13 5 L 11 3 z M 16 3 L 16 4 L 18 4 L 18 6 L 19 6 L 19 4 L 19 3 L 18 3 L 16 3 z M 5 9 L 3 11 L 5 13 L 5 9 z M 17 9 L 17 13 L 19 11 L 17 9 z M 3 16 L 3 18 L 3 19 L 6 19 L 6 18 L 4 18 L 4 16 L 3 16 z M 18 16 L 18 18 L 16 18 L 16 19 L 19 19 L 19 16 L 18 16 z M 9 17 L 11 19 L 13 17 L 9 17 z "
    class="ColorScheme-Text"
    />  
</a>
</svg>
